X:1
T:Title
%%score ( 1 2 ) { 3 | 4 }
L:1/8
Q:1/4=100
M:3/4
K:Bb
V:1 treble nm="Grand Piano, Soprano"
V:2 treble 
V:3 bass nm="Choir Pad, Debden, SMD"
V:4 bass 
V:1
 [GB]2 [^Fc][GB] [FA]2 | [GB]2 [Ge]4 | [Bd]2 [_Ac][Ac] [Ae]2 | dc [GB]4 | [GB]2 [GB][F_A] [FA]2 | %5
w: By~Benjamin~Burke~Beall,~1900 * * *|||||
 [F_A][Ac] [Ac][GB] [GB]2 | [GB]2 [GB][EG] [DF]2 | [CF]2 [DF]4 | [DF]2 [EG][FB] [Ee]2 | %9
w: ||||
 [Fd]2 [Ec]4 | [Ec]2 [EB][=Ec] [F_A]2 | [DB]2 [EG]4 | [EG]2 [GB][^FA] [GB]2 | %13
w: ||||
 [F=B]2 [Ec][FB] [Ec]2 | de [Ge][EB] [DB]2 | [B,D]2 [B,E]4- | [B,E]4 z2 |] %17
w: ||||
V:2
 x6 | x6 | x6 | _A2 z2 z2 | x6 | x6 | x6 | x6 | x6 | x6 | x6 | x6 | x6 | x6 | ^F2 z2 z2 | x6 | %16
 x6 |] %17
V:3
 B,2 A,B, C2 | B,2 B,4 | E2 EE C2 | DE E4 | E2 ED D2 | D2 EE E2 | E2 E[K:bass]B, B,2 | A,2 B,4 | %8
 B,2 B,B, C2 | =B,2 C4 | _A,2 G,C C2 | B,2 B,4 | B,2[K:treble] EE E2 | D2 ED C2 | %14
 C2[K:bass] B,G, F,2 | _A,2 G,4- | G,4 z2 |] %17
V:4
 E,2 E,E, E,2 | E,2 E,4 | G,2 _A,A, A,2 | _A,2 E,4 | E,2 F,F, F,2 | B,,2 E,E, E,2 | E,2 E,E, F,2 | %7
 F,2 B,,4 | B,,2 E,D, C,2 | G,2 _A,4 | z2 E,C, F,2 | B,,2 E,4 | E,2 E,E, E,2 | _A,2 G,G, C,2 | %14
 A,,2 B,,B,, B,,2 | B,,2 E,4- | E,4 z2 |] %17

